assets/images/icon-updates.svg

<?xml version="1.0" encoding="UTF-8" standalone="no"?>
<svg width="41px" height="77px" viewBox="0 0 41 77" version="1.1" xmlns="http://www.w3.org/2000/svg" xmlns:xlink="http://www.w3.org/1999/xlink" xmlns:sketch="http://www.bohemiancoding.com/sketch/ns">
    <!-- Generator: Sketch 3.5.1 (25234) - http://www.bohemiancoding.com/sketch -->
    <title>Untitled 2</title>
    <desc>Created with Sketch.</desc>
    <defs></defs>
    <g id="Page-1" stroke="none" stroke-width="1" fill="none" fill-rule="evenodd" sketch:type="MSPage">
        <path d="M25.625,0.25 C26.3190139,0.276692842 26.9129207,0.523597925 27.4067383,0.990722656 C27.9005559,1.45784739 28.1608072,2.06510043 28.1875,2.8125 L28.1875,31 C28.1608072,31.7473996 27.9005559,32.3546526 27.4067383,32.8217773 C26.9129207,33.2889021 26.3190139,33.5358072 25.625,33.5625 C25.1712217,33.5625 24.7307964,33.442384 24.3037109,33.2021484 C23.2626901,32.5615202 21.9547605,31.6940159 20.3798828,30.5996094 C18.8050051,29.5052029 17.1367276,28.3974665 15.375,27.2763672 L15.375,36.125 L10.25,36.125 L10.25,24.3535156 C9.31575054,23.8730445 8.46159241,23.5260427 7.6875,23.3125 C5.81900107,23.3391928 4.0973386,22.8587289 2.52246094,21.8710938 C0.947583271,20.8834586 0.106771367,19.2285272 0,16.90625 C0.106771367,14.5839728 0.947583271,12.9290414 2.52246094,11.9414062 C4.0973386,10.9537711 5.81900107,10.4733072 7.6875,10.5 C9.82292734,9.75260043 12.6122875,8.2511506 16.0556641,5.99560547 C19.4990407,3.74006034 22.2483621,1.94499365 24.3037109,0.610351562 C24.7307964,0.370115986 25.1712217,0.25 25.625,0.25 L25.625,0.25 Z M25.625,2.8125 L23.9033203,3.93359375 L20.5,6.17578125 L20.5,27.5566406 L21.78125,28.4375 C23.3561277,29.5319065 24.6373649,30.3860646 25.625,31 L25.625,2.8125 Z M30.75,15.625 L41,15.625 L41,18.1875 L30.75,18.1875 L30.75,15.625 Z M30.75,20.75 L41,25.875 L41,28.4375 L30.75,23.3125 L30.75,20.75 Z M41,5.375 L41,7.9375 L30.75,13.0625 L30.75,10.5 L41,5.375 Z" id="" fill="#379199" sketch:type="MSShapeGroup"></path>
        <path d="M25.625,40.25 C26.3190139,40.2766928 26.9129207,40.5235979 27.4067383,40.9907227 C27.9005559,41.4578474 28.1608072,42.0651004 28.1875,42.8125 L28.1875,71 C28.1608072,71.7473996 27.9005559,72.3546526 27.4067383,72.8217773 C26.9129207,73.2889021 26.3190139,73.5358072 25.625,73.5625 C25.1712217,73.5625 24.7307964,73.442384 24.3037109,73.2021484 C23.2626901,72.5615202 21.9547605,71.6940159 20.3798828,70.5996094 C18.8050051,69.5052029 17.1367276,68.3974665 15.375,67.2763672 L15.375,76.125 L10.25,76.125 L10.25,64.3535156 C9.31575054,63.8730445 8.46159241,63.5260427 7.6875,63.3125 C5.81900107,63.3391928 4.0973386,62.8587289 2.52246094,61.8710938 C0.947583271,60.8834586 0.106771367,59.2285272 0,56.90625 C0.106771367,54.5839728 0.947583271,52.9290414 2.52246094,51.9414062 C4.0973386,50.9537711 5.81900107,50.4733072 7.6875,50.5 C9.82292734,49.7526004 12.6122875,48.2511506 16.0556641,45.9956055 C19.4990407,43.7400603 22.2483621,41.9449937 24.3037109,40.6103516 C24.7307964,40.370116 25.1712217,40.25 25.625,40.25 L25.625,40.25 Z M25.625,42.8125 L23.9033203,43.9335938 L20.5,46.1757812 L20.5,67.5566406 L21.78125,68.4375 C23.3561277,69.5319065 24.6373649,70.3860646 25.625,71 L25.625,42.8125 Z M30.75,55.625 L41,55.625 L41,58.1875 L30.75,58.1875 L30.75,55.625 Z M30.75,60.75 L41,65.875 L41,68.4375 L30.75,63.3125 L30.75,60.75 Z M41,45.375 L41,47.9375 L30.75,53.0625 L30.75,50.5 L41,45.375 Z" id="" fill="#6CC2CA" sketch:type="MSShapeGroup"></path>
    </g>
</svg>

<svg width="41" height="77" viewBox="0 0 41 77" xmlns="http://www.w3.org/2000/svg"><title>Untitled 2</title><g fill="none" fill-rule="evenodd"><path d="M25.625.25c.694.027 1.288.274 1.782.74.494.468.754 1.075.78 1.823V31c-.026.747-.286 1.355-.78 1.822-.494.467-1.088.714-1.782.74-.454 0-.894-.12-1.32-.36-1.042-.64-2.35-1.508-3.925-2.602-1.575-1.095-3.243-2.203-5.005-3.324v8.85H10.25V24.353c-.934-.48-1.788-.828-2.563-1.04-1.868.025-3.59-.455-5.165-1.443C.948 20.884.107 19.23 0 16.907c.107-2.322.948-3.977 2.522-4.965 1.575-.986 3.297-1.467 5.165-1.44 2.136-.747 4.925-2.25 8.37-4.504 3.442-2.256 6.19-4.05 8.247-5.386.427-.24.867-.36 1.32-.36zm0 2.563l-1.722 1.12L20.5 6.177v21.38l1.28.88c1.576 1.096 2.857 1.95 3.845 2.564V2.812zm5.125 12.812H41v2.563H30.75v-2.563zm0 5.125L41 25.875v2.563l-10.25-5.125V20.75zM41 5.375v2.563l-10.25 5.125V10.5L41 5.375z" fill="#379199"/><path d="M25.625 40.25c.694.027 1.288.274 1.782.74.494.468.754 1.075.78 1.822V71c-.026.747-.286 1.355-.78 1.822-.494.467-1.088.714-1.782.74-.454 0-.894-.12-1.32-.36-1.042-.64-2.35-1.508-3.925-2.602-1.575-1.095-3.243-2.203-5.005-3.324v8.85H10.25V64.353c-.934-.48-1.788-.828-2.563-1.04-1.868.025-3.59-.455-5.165-1.443C.948 60.884.107 59.23 0 56.907c.107-2.322.948-3.977 2.522-4.965 1.575-.986 3.297-1.467 5.165-1.44 2.136-.747 4.925-2.25 8.37-4.504 3.442-2.256 6.19-4.05 8.247-5.386.427-.24.867-.36 1.32-.36zm0 2.563l-1.722 1.12-3.403 2.243v21.38l1.28.882c1.576 1.094 2.857 1.948 3.845 2.562V42.812zm5.125 12.812H41v2.563H30.75v-2.563zm0 5.125L41 65.875v2.563l-10.25-5.126V60.75zM41 45.375v2.563l-10.25 5.124V50.5L41 45.375z" fill="#6CC2CA"/></g></svg>
